local/share/icons/dracula-icons-main/scalable/apps/caffeine.svg

<?xml version="1.0" encoding="UTF-8"?>
<svg xmlns="http://www.w3.org/2000/svg" xmlns:xlink="http://www.w3.org/1999/xlink" width="64" height="64" viewBox="0 0 64 64">
<path fill-rule="nonzero" fill="rgb(62.352941%, 46.27451%, 25.882353%)" fill-opacity="1" d="M 32 5 C 46.910156 5 59 17.089844 59 32 C 59 46.910156 46.910156 59 32 59 C 17.089844 59 5 46.910156 5 32 C 5 17.089844 17.089844 5 32 5 Z M 32 5 "/>
<path fill-rule="nonzero" fill="rgb(100%, 100%, 100%)" fill-opacity="1" d="M 20.261719 28.476562 L 20.261719 41.390625 C 20.261719 43.992188 22.355469 46.085938 24.957031 46.085938 L 36.695312 46.085938 C 39.296875 46.085938 41.390625 43.992188 41.390625 41.390625 L 42.566406 41.390625 C 45.167969 41.390625 47.261719 39.296875 47.261719 36.695312 L 47.261719 35.519531 C 47.261719 32.921875 45.167969 30.824219 42.566406 30.824219 L 41.390625 30.824219 L 41.390625 28.476562 Z M 41.390625 33.171875 L 42.566406 33.171875 C 43.867188 33.171875 44.914062 34.222656 44.914062 35.523438 L 44.914062 36.695312 C 44.914062 37.996094 43.867188 39.042969 42.566406 39.042969 L 41.390625 39.042969 Z M 41.390625 33.171875 "/>
<path fill-rule="nonzero" fill="rgb(100%, 100%, 100%)" fill-opacity="1" d="M 24.957031 17.914062 C 22.609375 17.914062 20.847656 19.792969 20.847656 20.964844 C 20.847656 23.128906 23.78125 23.78125 23.78125 24.957031 C 23.78125 26.363281 22.609375 26.726562 21.433594 27.304688 C 23.78125 27.304688 25.542969 26.246094 25.542969 24.957031 C 25.542969 22.609375 22.609375 22.222656 22.609375 20.847656 C 22.609375 19.085938 25.285156 17.914062 24.957031 17.914062 Z M 32 17.914062 C 29.652344 17.914062 27.890625 19.792969 27.890625 20.964844 C 27.890625 23.128906 30.828125 23.78125 30.828125 24.957031 C 30.828125 26.363281 29.652344 26.726562 28.480469 27.304688 C 30.828125 27.304688 32.585938 26.246094 32.585938 24.957031 C 32.585938 22.609375 29.652344 22.222656 29.652344 20.847656 C 29.652344 19.085938 32.332031 17.914062 32 17.914062 Z M 38.457031 17.914062 C 36.109375 17.914062 34.347656 19.792969 34.347656 20.964844 C 34.347656 23.128906 37.28125 23.78125 37.28125 24.957031 C 37.28125 26.363281 36.109375 26.726562 34.933594 27.304688 C 37.28125 27.304688 39.042969 26.246094 39.042969 24.957031 C 39.042969 22.609375 36.109375 22.222656 36.109375 20.847656 C 36.109375 19.085938 38.785156 17.914062 38.457031 17.914062 Z M 38.457031 17.914062 "/>
</svg>

<svg width="64" height="64" version="1.1" viewBox="0 0 64 64" xmlns="http://www.w3.org/2000/svg">
 <path d="m32 5c14.912 0 27 12.088 27 27s-12.088 27-27 27-27-12.088-27-27 12.088-27 27-27z" fill="#9f7642" stroke-width="1.1739"/>
 <g transform="matrix(1.1739 0 0 1.1739 5 5)"></g>
 <path d="m20.261 28.478v12.913c0 2.6014 2.0943 4.6957 4.6957 4.6957h11.739c2.6014 0 4.6957-2.0943 4.6957-4.6957h1.1739c2.6014 0 4.6957-2.0943 4.6957-4.6957v-1.1739c0-2.6014-2.0943-4.6957-4.6957-4.6957h-1.1739v-2.3478zm21.13 4.6957h1.1739c1.3007 0 2.3478 1.0471 2.3478 2.3478v1.1739c0 1.3007-1.0471 2.3478-2.3478 2.3478h-1.1739z" fill="#ffffff"/>
 <path d="m24.957 17.913c-2.3478 0-4.1087 1.8783-4.1087 3.0522 0 2.1647 2.9348 2.8174 2.9348 3.9913 0 1.4087-1.1739 1.7703-2.3478 2.3478 2.3478 0 4.1087-1.0565 4.1087-2.3478 0-2.3478-2.9348-2.7329-2.9348-4.1087 0-1.7609 2.6777-2.9348 2.3478-2.9348zm7.0435 0c-2.3478 0-4.1087 1.8783-4.1087 3.0522 0 2.1647 2.9348 2.8174 2.9348 3.9913 0 1.4087-1.1739 1.7703-2.3478 2.3478 2.3478 0 4.1087-1.0565 4.1087-2.3478 0-2.3478-2.9348-2.7329-2.9348-4.1087 0-1.7609 2.6777-2.9348 2.3478-2.9348zm6.4565 0c-2.3478 0-4.1087 1.8783-4.1087 3.0522 0 2.1647 2.9348 2.8174 2.9348 3.9913 0 1.4087-1.1739 1.7703-2.3478 2.3478 2.3478 0 4.1087-1.0565 4.1087-2.3478 0-2.3478-2.9348-2.7329-2.9348-4.1087 0-1.7609 2.6777-2.9348 2.3478-2.9348z" fill="#ffffff"/>
</svg>
